src/learn.svg

<svg width="24" height="24" viewBox="0 0 24 24" xmlns="http://www.w3.org/2000/svg">
<path d="M12.409 5.273L21.324 9.231C21.784 9.435 22 9.912 22 10.339C22 10.766 21.784 11.243 21.324 11.447L18.213 12.828V16.595C18.213 16.74 18.163 16.874 18.079 16.98C17.922 17.33 17.645 17.613 17.336 17.838C16.959 18.112 16.481 18.34 15.946 18.522C14.873 18.887 13.484 19.1 11.983 19.1C10.483 19.1 9.093 18.887 8.021 18.522C7.485 18.34 7.007 18.112 6.631 17.838C6.321 17.613 6.045 17.329 5.887 16.98C5.80043 16.8704 5.75355 16.7347 5.754 16.595V13.771L5.783 12.826L5.5 12.5C5.12 13.025 4.603 13.936 4.477 15.036C4.64076 15.1358 4.77621 15.2759 4.87043 15.4429C4.96464 15.6099 5.01448 15.7983 5.01518 15.99C5.01589 16.1818 4.96743 16.3705 4.87444 16.5382C4.78145 16.706 4.64702 16.847 4.484 16.948C4.499 17.135 4.494 17.328 4.477 17.514C4.46899 17.5967 4.45832 17.679 4.445 17.761H4.473C4.473 17.765 4.476 17.789 4.489 17.835C4.504 17.887 4.529 17.954 4.566 18.031C4.64 18.187 4.752 18.364 4.893 18.528C5.193 18.878 5.521 19.061 5.793 19.061L5.014 20C4.668 20 4.288 19.748 3.874 19.244C3.291 19.748 2.834 20 2.5 20L2.096 19.013C2.466 19.013 2.799 18.747 3.034 18.201C3.146 17.941 3.215 17.655 3.241 17.395C3.26076 17.2298 3.25503 17.0625 3.224 16.899C3.05653 16.7763 2.92641 16.6095 2.84811 16.4171C2.76982 16.2248 2.74642 16.0146 2.78052 15.8098C2.81462 15.605 2.90488 15.4136 3.04126 15.2571C3.17765 15.1005 3.3548 14.9849 3.553 14.923C3.687 13.75 4.075 12.882 4.495 12.255L2.676 11.447C2.216 11.243 2 10.766 2 10.34C2 9.913 2.216 9.436 2.676 9.232L11.591 5.274C11.853 5.158 12.147 5.158 12.409 5.274V5.273ZM11.977 9.018L6.457 11.767L12 14.227L20.758 10.339L12 6.45L3.242 10.34L5.352 11.277L11 8.5L11.977 9.018ZM16.971 13.38L12.409 15.405C12.2803 15.4625 12.141 15.4923 12 15.4923C11.859 15.4923 11.7197 15.4625 11.591 15.405L7.01 13.371L6.997 13.8V16.4C6.9999 16.4089 7.00256 16.4179 7.005 16.427C7.027 16.506 7.112 16.651 7.363 16.834C7.607 17.012 7.963 17.19 8.422 17.346C9.339 17.659 10.589 17.858 11.984 17.858C13.379 17.858 14.629 17.658 15.547 17.346C16.007 17.19 16.361 17.012 16.605 16.834C16.856 16.651 16.941 16.506 16.963 16.427C16.9658 16.4179 16.9688 16.4089 16.972 16.4V13.38H16.971ZM17 2.5V1H23V7H21.5V3.429L18.25 6.75L17 6L20.5 2.5H17Z" fill="currentColor"/>
</svg>

<svg width="24" height="24" viewBox="0 0 24 24" xmlns="http://www.w3.org/2000/svg" xmlns:xlink="http://www.w3.org/1999/xlink">
  <path d="M12.409 5.273l8.915 3.958c.46.204.676.681.676 1.108 0 .427-.216.904-.676 1.108l-3.111 1.381v3.767c0 .145-.05.279-.134.385-.157.35-.434.633-.743.858-.377.274-.855.502-1.39.684-1.073.365-2.462.578-3.963.578-1.5 0-2.89-.213-3.962-.578-.536-.182-1.014-.41-1.39-.684-.31-.225-.586-.509-.744-.858a.618.618 0 0 1-.133-.385v-2.824l.029-.945L5.5 12.5c-.38.525-.897 1.436-1.023 2.536a1.122 1.122 0 0 1 .007 1.912c.015.187.01.38-.007.566a3.863 3.863 0 0 1-.032.247h.028c0 .004.003.028.016.074.015.052.04.119.077.196.074.156.186.333.327.497.3.35.628.533.9.533L5.014 20c-.346 0-.726-.252-1.14-.756-.583.504-1.04.756-1.374.756l-.404-.987c.37 0 .703-.266.938-.812.112-.26.181-.546.207-.806a1.625 1.625 0 0 0-.017-.496 1.122 1.122 0 0 1 .329-1.976c.134-1.173.522-2.041.942-2.668l-1.819-.808C2.216 11.243 2 10.766 2 10.34c0-.427.216-.904.676-1.108l8.915-3.958c.262-.116.556-.116.818 0zm-.432 3.745l-5.52 2.749L12 14.227l8.758-3.888L12 6.45 3.242 10.34l2.11.937L11 8.5l.977.518zm4.994 4.362l-4.562 2.025a1.002 1.002 0 0 1-.818 0L7.01 13.371l-.013.429v2.6a.553.553 0 0 1 .008.027c.022.079.107.224.358.407.244.178.6.356 1.059.512.917.313 2.167.512 3.562.512s2.645-.2 3.563-.512c.46-.156.814-.334 1.058-.512.251-.183.336-.328.358-.407a.553.553 0 0 1 .009-.027v-3.02zM17 2.5V1h6v6h-1.5V3.429L18.25 6.75 17 6l3.5-3.5H17z" fill="currentColor"/>
</svg>
